X: 0872
T: FLAGG'S JIG
B: Oliver Ditson "The Boston Collection of Instrumental Music" 1910 p.87 #2
F: http://conquest.imslp.info/files/imglnks/usimg/8/8f/IMSLP175643-PMLP309456-bostoncollection00bost_bw.pdf
%: 2012 John Chambers <jc:trillian.mit.edu>
M: 6/8
L: 1/8
K: Amix
e |\
AAA AAA | AAA c2e | AAA AcA | d2c BGe |\
AcA AcA | AcA c2A | d2B c2A | d2c BGe :|
|:\
AAA e3  | AAA cAc | AAA e2c | d2c BGB |\
AAA e3  | AAA c2A | d2B c2A | d2c BGB :|

%%sep 1 1 500
%%sep 1 1 500
